X:0510371
T:[ID 4-35ra]
T:Bezeichnung standardisiert: Menuett
T:Menuet
C:Urheber unbekannt
C:Erstbeleg: 1767 (Datum in der schriftlichen Quelle)
C:Datum in der hier transkribierten schriftlichen Quelle: 1773
O:Deutschland; Westfalen; Dinker
S:"Tanzsammlung Dahlhoff" Staatsbibliothek zu Berlin, Musiksammlung, Mus. ms. 40182, Buch 05, 037/1, PDF Nr: 578
S:Scan online: http://resolver.staatsbibliothek-berlin.de/SBB0000969000000578
F:http://simonwascher.info/TradArchiv/Dahlhoff/ file-version 2017-11-21
Z:transkription nach Capella Richmud Rollenbeck, Konversion nach MusicXML Joergen Lang, Konversion nach abc und abc Nachbearbeitung Simon Wascher 2016-11-17
L:1/8
M:3/4
K:D
a4fd | Acegf2 | a4fd | Acegf2 | b2b2ge | a2a2fd | efg2f2 | {f}e6 ::
e4cA | E^GBdc2 | e4cA | E^GBdc2 | a4fd | Acegf2 | a4fd | bgecd2 | "^F"(3bag fedc | d6 H:| "^F"gebgec | d6 H:|

